X:9
M:4/4
L:1/4
K:F
F F c c | B c A F | A A G G | F G E C | G G F E | D D C2 | G G c A | B c A F | A A G G | F G E C | !sintro!F F B A | G G F2 !eintro!|]
